docs/icons/whatsapp-app.svg

<!DOCTYPE svg PUBLIC "-//W3C//DTD SVG 1.1//EN" "http://www.w3.org/Graphics/SVG/1.1/DTD/svg11.dtd">
<!-- Uploaded to: SVG Repo, www.svgrepo.com, Transformed by: SVG Repo Mixer Tools -->
<svg fill="#222222" width="800px" height="800px" viewBox="-3.2 -3.2 38.40 38.40" version="1.1" xmlns="http://www.w3.org/2000/svg" stroke="#222222">
<g id="SVGRepo_bgCarrier" stroke-width="0">
<rect x="-3.2" y="-3.2" width="38.40" height="38.40" rx="7.68" fill="#ffffff" strokewidth="0"/>
</g>
<g id="SVGRepo_tracerCarrier" stroke-linecap="round" stroke-linejoin="round"/>
<g id="SVGRepo_iconCarrier"> <title>whatsapp</title> <path d="M26.576 5.363c-2.69-2.69-6.406-4.354-10.511-4.354-8.209 0-14.865 6.655-14.865 14.865 0 2.732 0.737 5.291 2.022 7.491l-0.038-0.070-2.109 7.702 7.879-2.067c2.051 1.139 4.498 1.809 7.102 1.809h0.006c8.209-0.003 14.862-6.659 14.862-14.868 0-4.103-1.662-7.817-4.349-10.507l0 0zM16.062 28.228h-0.005c-0 0-0.001 0-0.001 0-2.319 0-4.489-0.64-6.342-1.753l0.056 0.031-0.451-0.267-4.675 1.227 1.247-4.559-0.294-0.467c-1.185-1.862-1.889-4.131-1.889-6.565 0-6.822 5.531-12.353 12.353-12.353s12.353 5.531 12.353 12.353c0 6.822-5.53 12.353-12.353 12.353h-0zM22.838 18.977c-0.371-0.186-2.197-1.083-2.537-1.208-0.341-0.124-0.589-0.185-0.837 0.187-0.246 0.371-0.958 1.207-1.175 1.455-0.216 0.249-0.434 0.279-0.805 0.094-1.15-0.466-2.138-1.087-2.997-1.852l0.010 0.009c-0.799-0.74-1.484-1.587-2.037-2.521l-0.028-0.052c-0.216-0.371-0.023-0.572 0.162-0.757 0.167-0.166 0.372-0.434 0.557-0.65 0.146-0.179 0.271-0.384 0.366-0.604l0.006-0.017c0.043-0.087 0.068-0.188 0.068-0.296 0-0.131-0.037-0.253-0.101-0.357l0.002 0.003c-0.094-0.186-0.836-2.014-1.145-2.758-0.302-0.724-0.609-0.625-0.836-0.637-0.216-0.010-0.464-0.012-0.712-0.012-0.395 0.010-0.746 0.188-0.988 0.463l-0.001 0.002c-0.802 0.761-1.3 1.834-1.3 3.023 0 0.026 0 0.053 0.001 0.079l-0-0.004c0.131 1.467 0.681 2.784 1.527 3.857l-0.012-0.015c1.604 2.379 3.742 4.282 6.251 5.564l0.094 0.043c0.548 0.248 1.25 0.513 1.968 0.74l0.149 0.041c0.442 0.14 0.951 0.221 1.479 0.221 0.303 0 0.601-0.027 0.889-0.078l-0.031 0.004c1.069-0.223 1.956-0.868 2.497-1.749l0.009-0.017c0.165-0.366 0.261-0.793 0.261-1.242 0-0.185-0.016-0.366-0.047-0.542l0.003 0.019c-0.092-0.155-0.34-0.247-0.712-0.434z"/> </g>
</svg>

<?xml version="1.0" encoding="UTF-8" standalone="no"?>
<!-- Uploaded to: SVG Repo, www.svgrepo.com, Transformed by: SVG Repo Mixer Tools -->

<svg
   fill="#222222"
   width="800.00006"
   height="800.00006"
   viewBox="-3.2 -3.2 38.400003 38.400003"
   version="1.1"
   stroke="#222222"
   id="svg11"
   sodipodi:docname="whatsapp-app.svg"
   xmlns:inkscape="http://www.inkscape.org/namespaces/inkscape"
   xmlns:sodipodi="http://sodipodi.sourceforge.net/DTD/sodipodi-0.dtd"
   xmlns="http://www.w3.org/2000/svg"
   xmlns:svg="http://www.w3.org/2000/svg">
  <defs
     id="defs15" />
  <sodipodi:namedview
     id="namedview13"
     pagecolor="#505050"
     bordercolor="#eeeeee"
     borderopacity="1"
     inkscape:showpageshadow="0"
     inkscape:pageopacity="0"
     inkscape:pagecheckerboard="0"
     inkscape:deskcolor="#505050"
     showgrid="false"
     showguides="true">
    <sodipodi:guide
       position="18.960333,3.6216395"
       orientation="1,0"
       id="guide175"
       inkscape:locked="false" />
    <sodipodi:guide
       position="10.651872,18.481002"
       orientation="0,-1"
       id="guide177"
       inkscape:locked="false" />
  </sodipodi:namedview>
  <g
     id="SVGRepo_bgCarrier"
     stroke-width="0">
    <rect
       x="-3.2"
       y="-3.2"
       width="38.400002"
       height="38.400002"
       rx="7.6799998"
       fill="#ffffff"
       strokewidth="0"
       id="rect2" />
  </g>
  <g
     id="SVGRepo_iconCarrier"
     transform="matrix(0.93321286,0,0,0.93321286,1.8656847,0.7949461)"
     style="stroke:none">
    <title
       id="title6">whatsapp</title>
    <path
       d="M 26.576,5.363 C 23.886,2.673 20.17,1.009 16.065,1.009 7.856,1.009 1.2,7.664 1.2,15.874 c 0,2.732 0.737,5.291 2.022,7.491 L 3.184,23.295 1.075,30.997 8.954,28.93 c 2.051,1.139 4.498,1.809 7.102,1.809 h 0.006 c 8.209,-0.003 14.862,-6.659 14.862,-14.868 0,-4.103 -1.662,-7.817 -4.349,-10.507 v 0 z M 16.062,28.228 h -0.005 -10e-4 c -2.319,0 -4.489,-0.64 -6.342,-1.753 L 9.77,26.506 9.319,26.239 4.644,27.466 5.891,22.907 5.597,22.44 C 4.412,20.578 3.708,18.309 3.708,15.875 3.708,9.053 9.239,3.522 16.061,3.522 c 6.822,0 12.353,5.531 12.353,12.353 0,6.822 -5.53,12.353 -12.353,12.353 v 0 z m 6.776,-9.251 c -0.371,-0.186 -2.197,-1.083 -2.537,-1.208 -0.341,-0.124 -0.589,-0.185 -0.837,0.187 -0.246,0.371 -0.958,1.207 -1.175,1.455 -0.216,0.249 -0.434,0.279 -0.805,0.094 -1.15,-0.466 -2.138,-1.087 -2.997,-1.852 l 0.01,0.009 c -0.799,-0.74 -1.484,-1.587 -2.037,-2.521 l -0.028,-0.052 c -0.216,-0.371 -0.023,-0.572 0.162,-0.757 0.167,-0.166 0.372,-0.434 0.557,-0.65 0.146,-0.179 0.271,-0.384 0.366,-0.604 l 0.006,-0.017 c 0.043,-0.087 0.068,-0.188 0.068,-0.296 0,-0.131 -0.037,-0.253 -0.101,-0.357 l 0.002,0.003 C 13.398,12.225 12.656,10.397 12.347,9.653 12.045,8.929 11.738,9.028 11.511,9.016 11.295,9.006 11.047,9.004 10.799,9.004 10.404,9.014 10.053,9.192 9.811,9.467 L 9.81,9.469 c -0.802,0.761 -1.3,1.834 -1.3,3.023 0,0.026 0,0.053 10e-4,0.079 v -0.004 c 0.131,1.467 0.681,2.784 1.527,3.857 l -0.012,-0.015 c 1.604,2.379 3.742,4.282 6.251,5.564 l 0.094,0.043 c 0.548,0.248 1.25,0.513 1.968,0.74 l 0.149,0.041 c 0.442,0.14 0.951,0.221 1.479,0.221 0.303,0 0.601,-0.027 0.889,-0.078 l -0.031,0.004 c 1.069,-0.223 1.956,-0.868 2.497,-1.749 l 0.009,-0.017 c 0.165,-0.366 0.261,-0.793 0.261,-1.242 0,-0.150391 -0.01057,-0.298139 -0.03118,-0.442705 -0.0047,-0.03327 -0.01002,-0.06637 -0.01582,-0.0993 l 0.003,0.019 c -0.092,-0.155 -0.34,-0.247 -0.712,-0.434 z"
       id="path8"
       sodipodi:nodetypes="cssccccssssccccsccccccsssscccccccccccccccscccccccsccccccccsccccsscccc"
       style="stroke:none" />
  </g>
</svg>
